ExtensionSource/app/images/experimental-icon.svg

<svg id="ezgGiDIuJB01" xmlns="http://www.w3.org/2000/svg" xmlns:xlink="http://www.w3.org/1999/xlink" viewBox="0 0 16 16" shape-rendering="geometricPrecision" text-rendering="geometricPrecision"><path d="M14.2042,13.2143c.3334.5297.3959.9821.1875,1.3571-.2023.381-.619.5715-1.25.5715h-10.28567c-.63096,0-1.0506-.1905-1.25893-.5715-.20238-.375-.13691-.8274.19643-1.3571L6.2846,6.13393v-3.5625h-.57143c-.15476,0-.28869-.05655-.40179-.16965s-.16964-.24702-.16964-.40178.05655-.28869.16964-.40179.24703-.16964.40179-.16964h4.57143c.1548,0,.2887.05655.4018.16964s.1696.24703.1696.40179-.0565.28869-.1696.40178-.247.16965-.4018.16965h-.57143v3.5625L14.2042,13.2143ZM7.24888,6.74107L4.82031,10.5714h6.35719L8.74888,6.74107l-.17857-.27678v-.33036-3.5625h-1.14285v3.5625.33036l-.17858.27678Z" fill="#fff"/></svg>

<svg width="16" height="16" viewBox="0 0 16 16" fill="none" xmlns="http://www.w3.org/2000/svg">
<path d="M14.2042 13.2143C14.5376 13.744 14.6001 14.1964 14.3917 14.5714C14.1894 14.9524 13.7727 15.1429 13.1417 15.1429H2.85603C2.22507 15.1429 1.80543 14.9524 1.5971 14.5714C1.39472 14.1964 1.46019 13.744 1.79353 13.2143L6.2846 6.13393V2.57143H5.71317C5.55841 2.57143 5.42448 2.51488 5.31138 2.40178C5.19829 2.28869 5.14174 2.15476 5.14174 2C5.14174 1.84524 5.19829 1.71131 5.31138 1.59821C5.42448 1.48512 5.55841 1.42857 5.71317 1.42857H10.2846C10.4394 1.42857 10.5733 1.48512 10.6864 1.59821C10.7995 1.71131 10.856 1.84524 10.856 2C10.856 2.15476 10.7995 2.28869 10.6864 2.40178C10.5733 2.51488 10.4394 2.57143 10.2846 2.57143H9.71317V6.13393L14.2042 13.2143ZM7.24888 6.74107L4.82031 10.5714H11.1775L8.74888 6.74107L8.57031 6.46429V6.13393V2.57143H7.42746V6.13393V6.46429L7.24888 6.74107Z" fill="#24292E"/>
</svg>
